src/assets/image/block11/employee-decor5.svg

<svg width="28" height="27" viewBox="0 0 28 27" fill="none" xmlns="http://www.w3.org/2000/svg">
<path d="M17.25 10H25.25C25.913 10 26.5489 10.2634 27.0178 10.7322C27.4866 11.2011 27.75 11.837 27.75 12.5V15.13C27.7503 15.4567 27.6866 15.7803 27.5625 16.0825L23.6937 25.4763C23.5994 25.7053 23.4391 25.9011 23.2332 26.0389C23.0274 26.1766 22.7852 26.2501 22.5375 26.25H1.5C1.16848 26.25 0.850537 26.1183 0.616116 25.8839C0.381696 25.6495 0.25 25.3315 0.25 25V12.5C0.25 12.1685 0.381696 11.8505 0.616116 11.6161C0.850537 11.3817 1.16848 11.25 1.5 11.25H5.8525C6.05262 11.2501 6.24983 11.2021 6.42754 11.11C6.60526 11.018 6.75828 10.8847 6.87375 10.7213L13.69 1.0625C13.7762 0.940393 13.9032 0.853202 14.0482 0.81674C14.1931 0.780277 14.3463 0.796956 14.48 0.863752L16.7475 1.9975C17.3856 2.31645 17.8954 2.84414 18.1922 3.4929C18.4889 4.14165 18.5548 4.8724 18.3788 5.56375L17.25 10ZM7.75 13.235V23.75H21.7L25.25 15.13V12.5H17.25C16.8692 12.4999 16.4935 12.4129 16.1515 12.2456C15.8095 12.0782 15.5103 11.835 15.2766 11.5344C15.0429 11.2338 14.881 10.8837 14.8031 10.511C14.7253 10.1383 14.7336 9.75275 14.8275 9.38375L15.9562 4.94875C15.9916 4.81041 15.9785 4.66414 15.9191 4.53429C15.8598 4.40443 15.7577 4.29881 15.63 4.235L14.8037 3.8225L8.91625 12.1625C8.60375 12.605 8.20375 12.9675 7.75 13.235V13.235ZM5.25 13.75H2.75V23.75H5.25V13.75Z" fill="#696FE6"/>
</svg>

<svg width="28" height="27" fill="none" xmlns="http://www.w3.org/2000/svg"><path d="M17.25 10h8a2.5 2.5 0 0 1 2.5 2.5v2.63c0 .327-.063.65-.188.952l-3.868 9.394a1.25 1.25 0 0 1-1.156.774H1.5A1.25 1.25 0 0 1 .25 25V12.5a1.25 1.25 0 0 1 1.25-1.25h4.353a1.248 1.248 0 0 0 1.02-.529l6.817-9.659a.625.625 0 0 1 .79-.198l2.267 1.134a3.125 3.125 0 0 1 1.632 3.566L17.25 10Zm-9.5 3.235V23.75H21.7l3.55-8.62V12.5h-8a2.501 2.501 0 0 1-2.422-3.116l1.128-4.435a.624.624 0 0 0-.326-.714l-.826-.413-5.888 8.34a3.77 3.77 0 0 1-1.166 1.073Zm-2.5.515h-2.5v10h2.5v-10Z" fill="#696FE6"/></svg>
